!!!COM: Beethoven
!!!OTL: 24 Variationen uber Venni Amore von V. Righini
!!!Variation: Variation 7 b
**function	**harm	**kern	**kern	**kern	**kern
*M2/4	*M2/4	*staff3	*staff4	*staff1	*staff2
*D:	*D:	*clefF4	*clefF4	*clefG2	*clefG2
*tb32	*	*k[f#c#]	*k[f#c#]	*k[f#c#]	*k[f#c#]
*	*	*M2/4	*M2/4	*M2/4	*M2/4
*	*	*D:	*D:	*D:	*D:
=	=	=-	=-	=-	=-
2D	2V7	2r	2r	2r	(8.AL
.	.	.	.	.	32BLL
.	.	.	.	.	32c#JJJ)
.	.	.	.	.	(8.dL
.	.	.	.	.	32eLL
.	.	.	.	.	32f#JJJ)
=	=	=129	=129	=129	=129
4D	4V7	2r	(8.AAAL	2r	(4g
.	.	.	32BBBLL	.	.
.	.	.	32CC#JJJ)	.	.
4D	4I64	.	(8.DDL	.	8.f#L)
.	.	.	32EELL	.	16dJk
.	.	.	32FF#JJJ)	.	.
=	=	=130	=130	=130	=130
4D	4V2	2r	(4GG	(8.aL	4c#
.	.	.	.	32bLL	.
.	.	.	.	32cc#JJJ)	.
8.D	8.I6	.	8.FF#L)	(8.ddL	4r
16D	16I	.	16DDJk	32eeLL	.
.	.	.	.	32ff#JJJ)	.
=	=	=131	=131	=131	=131
4D	4V7	(8.AAL	4CC#	(4gg	2r
.	.	32BBLL	.	.	.
.	.	32C#JJJ)	.	.	.
4D	4I6	(8.DL	4DD	8.ff#L)	.
.	.	32ELL	.	16ddJk	.
.	.	32F#JJJ)	.	.	.
=	=	=132	=132	=132	=132
4D	4V43	4G	4GG	[2a	(8.AL
.	.	.	.	.	32BLL
.	.	.	.	.	32c#JJJ)
4D	4I	[4AA	4FF# 4F#	.	(8.dL
.	.	.	.	.	32eLL
.	.	.	.	.	32f#JJJ)
=	=	=133	=133	=133	=133
4D	4V43	2AA]	4EE 4E	(8.aL]	4g
.	.	.	.	32bLL	.
.	.	.	.	32cc#JJJ)	.
4D	4I	.	4DD 4D	8.ddL	4f#
.	.	.	.	16eeJk	.
=	=	=134	=134	=134	=134
4D	4I64	2r	8AA	8.ff#L	4dd
.	.	.	8r	.	.
.	.	.	.	16ggJk	.
4D	4V7	.	[4AAA	(8.aaL	4ee 4gg
.	.	.	.	32bbLL	.
.	.	.	.	32ccc#JJJ)	.
=	=	=135	=135	=135	=135
2T	2I	2r	(8.AAAL]	8ddd	8dd 8ff#
.	.	.	.	8r	8r
.	.	.	32BBBLL	.	.
.	.	.	32CC#JJJ)	.	.
.	.	.	8DD	4r	4r
.	.	.	8r	.	.
=	=	=136:|!	=136:|!	=136:|!	=136:|!
*-	*-	*-	*-	*-	*-
